images/icons/v2/mic-off-solid-28.svg

<svg height="28" viewBox="0 0 28 28" width="28" xmlns="http://www.w3.org/2000/svg"><path d="m25.56 3.56-22 22-1.06-1.06 4.67-4.67a9.22 9.22 0 0 1 -1.67-5.33h1.5a7.74 7.74 0 0 0 1.25 4.25l1.37-1.37a4.9 4.9 0 0 1 -.62-2.38v-8a5 5 0 0 1 10 0v1l5.5-5.5zm-6.56 11.44v-2.76l-7.22 7.22a5 5 0 0 0 7.22-4.46zm-5 7a6.62 6.62 0 0 1 -3.65-1.11l-1.07 1.11a8.09 8.09 0 0 0 4 1.5v4.5h1.5v-4.54a8.82 8.82 0 0 0 7.75-9h-1.53a7.27 7.27 0 0 1 -7 7.54z"/></svg>

<svg xmlns="http://www.w3.org/2000/svg" width="28" height="28" viewBox="0 0 28 28"><title>mic-off-solid-28</title><path d="M25.56,3.56l-22,22L2.5,24.5l4.67-4.67A9.22,9.22,0,0,1,5.5,14.5H7a7.74,7.74,0,0,0,1.25,4.25l1.37-1.37A4.9,4.9,0,0,1,9,15V7A5,5,0,0,1,19,7V8l5.5-5.5ZM19,15V12.24l-7.22,7.22A5,5,0,0,0,19,15Zm-5,7a6.62,6.62,0,0,1-3.65-1.11L9.28,22a8.09,8.09,0,0,0,4,1.5V28h1.5V23.46a8.82,8.82,0,0,0,7.75-9H21A7.27,7.27,0,0,1,14,22Z"/></svg>
